X: 10983
T: Drunken Gauger, The
R: jig
M: 6/8
K: Gmajor
|:c|BAG GED|~D3 GED|G2E AGE|ABA ABc|
BAG GED|~D3 GED|G2E BGE|GAG G2:|
|:c|BAG c2d|e/f/ge BAG|BcA BAG|ABA ABc|
BAG c2d|e/f/ge BAG|BcA BGE|GAG G2:|

